picto/car-hire-left-fr.svg

<svg class="color-immutable" width="24" height="24" viewBox="0 0 24 24" fill="none" xmlns="http://www.w3.org/2000/svg"><path d="M0 22.5V1.5C0 0.675 0.675 0 1.5 0H22.5C23.325 0 24 0.675 24 1.5V22.5C24 23.325 23.325 24 22.5 24H1.5C0.675 24 0 23.325 0 22.5Z" fill="#2D327D"/><path d="M3.345 16.714C3.15 16.73 3 16.892 3 17.087V19.425C3 19.632 3.168 19.8 3.376 19.8H3.788V19.369C3.788 18.127 4.795 17.118 6.037 17.118C7.279 17.118 8.287 18.126 8.287 19.369V19.8H15.749V19.369C15.749 18.127 16.757 17.118 17.999 17.118C19.24 17.118 20.249 18.126 20.249 19.369V19.8H20.623C20.83 19.8 20.999 19.632 20.999 19.425V16.781C20.999 16.484 20.879 16.197 20.669 15.986L18.418 13.736C18.207 13.525 17.921 13.406 17.623 13.406H11.14C10.842 13.406 10.556 13.525 10.345 13.736L7.731 16.35L3.345 16.714ZM14.627 16.032V14.495C14.627 14.288 14.795 14.119 15.002 14.119H17.586C17.685 14.119 17.781 14.159 17.852 14.229L19.646 16.023C19.687 16.065 19.711 16.122 19.711 16.182C19.711 16.306 19.611 16.407 19.486 16.407H15.002C14.795 16.406 14.627 16.239 14.627 16.032ZM9.279 16.406C9.154 16.406 9.053 16.306 9.053 16.181C9.053 16.122 9.078 16.064 9.119 16.022L10.913 14.228C10.984 14.158 11.079 14.118 11.179 14.118H13.54C13.747 14.118 13.915 14.287 13.915 14.494C13.915 14.494 13.915 14.494 13.915 14.495L13.912 16.032C13.912 16.238 13.745 16.405 13.538 16.405H9.279V16.406Z" fill="white"/><path fill-rule="evenodd" clip-rule="evenodd" d="M17.995 20.222C17.477 20.222 17.058 19.802 17.058 19.284C17.058 18.766 17.478 18.346 17.995 18.346C18.512 18.346 18.932 18.766 18.932 19.284C18.933 19.802 18.513 20.222 17.995 20.222ZM17.995 17.578C17.054 17.578 16.288 18.342 16.288 19.284C16.288 20.226 17.054 20.991 17.995 20.991C18.937 20.991 19.702 20.226 19.702 19.284C19.702 18.342 18.937 17.578 17.995 17.578Z" fill="white"/><path fill-rule="evenodd" clip-rule="evenodd" d="M6.034 20.222C5.516 20.222 5.098 19.802 5.098 19.284C5.098 18.766 5.517 18.346 6.034 18.346C6.552 18.346 6.972 18.766 6.972 19.284C6.973 19.802 6.553 20.222 6.034 20.222ZM6.035 17.578C5.093 17.578 4.328 18.342 4.328 19.284C4.328 20.226 5.093 20.991 6.035 20.991C6.977 20.991 7.742 20.226 7.742 19.284C7.742 18.342 6.977 17.578 6.035 17.578Z" fill="white"/><path d="M4.59 4.833V5.248H3V3H3.491V4.833H4.59Z" fill="white"/><path d="M5.622 3.52299C5.866 3.52299 6.065 3.604 6.22 3.766C6.373 3.926 6.449 4.139 6.449 4.406C6.449 4.682 6.367 4.90199 6.204 5.06599C6.053 5.21799 5.854 5.295 5.609 5.295C5.348 5.295 5.139 5.20999 4.985 5.03999C4.836 4.87699 4.763 4.66699 4.763 4.40899C4.763 4.15499 4.835 3.948 4.978 3.789C5.137 3.612 5.352 3.52299 5.622 3.52299ZM5.599 3.871C5.481 3.871 5.387 3.91899 5.318 4.01399C5.247 4.10999 5.212 4.24199 5.212 4.40899C5.212 4.58199 5.247 4.715 5.317 4.807C5.389 4.9 5.487 4.947 5.611 4.947C5.727 4.947 5.819 4.90399 5.886 4.81899C5.963 4.72499 6.001 4.588 6.001 4.40799C6.001 4.24 5.967 4.10899 5.899 4.01599C5.829 3.91899 5.729 3.871 5.599 3.871Z" fill="white"/><path d="M8.299 4.604C8.277 4.771 8.221 4.911 8.131 5.023C7.985 5.204 7.78 5.295 7.514 5.295C7.241 5.295 7.029 5.202 6.877 5.015C6.749 4.856 6.685 4.66 6.685 4.426C6.685 4.137 6.771 3.909 6.942 3.742C7.092 3.596 7.285 3.524 7.522 3.524C7.74 3.524 7.918 3.581 8.054 3.694C8.19 3.807 8.268 3.962 8.288 4.159H7.85C7.833 4.069 7.797 4 7.74 3.951C7.684 3.901 7.613 3.877 7.527 3.877C7.403 3.877 7.307 3.924 7.239 4.018C7.17 4.111 7.136 4.243 7.136 4.412C7.136 4.562 7.163 4.682 7.218 4.773C7.285 4.885 7.385 4.941 7.518 4.941C7.715 4.941 7.83 4.829 7.864 4.604H8.299Z" fill="white"/><path d="M10.087 5.249H9.63199C9.61299 5.183 9.60299 5.12699 9.60299 5.08099C9.46399 5.22399 9.28399 5.295 9.06299 5.295C8.89099 5.295 8.75599 5.255 8.65999 5.175C8.54899 5.083 8.49399 4.95399 8.49399 4.789C8.49399 4.57899 8.58899 4.433 8.77899 4.352C8.85599 4.319 8.99699 4.289 9.20399 4.261C9.37999 4.238 9.49099 4.21499 9.53499 4.19299C9.57799 4.17099 9.59999 4.12599 9.59999 4.05999C9.59999 3.91299 9.50299 3.83999 9.30799 3.83999C9.20399 3.83999 9.12899 3.85799 9.08099 3.89499C9.03299 3.93199 9.00199 3.99599 8.98599 4.08699H8.56499C8.57799 3.90099 8.64799 3.75999 8.77599 3.66499C8.90299 3.56999 9.08399 3.52299 9.31799 3.52299C9.57699 3.52299 9.76899 3.57599 9.89299 3.68099C9.94999 3.72999 9.98899 3.78299 10.008 3.83899C10.027 3.89499 10.036 3.98499 10.036 4.10699C10.036 4.13299 10.034 4.245 10.031 4.445C10.029 4.647 10.028 4.763 10.028 4.793C10.028 4.915 10.032 5.00399 10.039 5.06099C10.046 5.11799 10.063 5.181 10.087 5.249ZM9.59699 4.438C9.53899 4.474 9.43499 4.50199 9.28299 4.52299C9.17599 4.53899 9.09999 4.55999 9.05199 4.58599C8.98499 4.62199 8.95199 4.683 8.95199 4.769C8.95199 4.839 8.97399 4.893 9.01799 4.932C9.06299 4.971 9.12399 4.98999 9.20299 4.98999C9.33399 4.98999 9.43999 4.944 9.52099 4.852C9.54999 4.82 9.56999 4.78699 9.58099 4.75299C9.59199 4.71899 9.59699 4.673 9.59699 4.617V4.438Z" fill="white"/><path d="M11.286 3.566V3.881H10.952V4.67C10.952 4.764 10.961 4.824 10.978 4.85C11.004 4.887 11.061 4.905 11.15 4.905C11.185 4.905 11.23 4.902 11.285 4.897V5.254C11.185 5.265 11.092 5.271 11.008 5.271C10.881 5.271 10.784 5.257 10.717 5.228C10.613 5.182 10.549 5.098 10.523 4.976C10.512 4.924 10.506 4.816 10.506 4.651V3.881H10.234V3.566H10.506V3.172H10.951V3.566H11.286Z" fill="white"/><path d="M11.989 3V3.401H11.543V3H11.989ZM11.989 3.572V5.249H11.543V3.572H11.989Z" fill="white"/><path d="M13.15 3.52299C13.394 3.52299 13.593 3.604 13.748 3.766C13.901 3.926 13.977 4.139 13.977 4.406C13.977 4.682 13.895 4.90199 13.732 5.06599C13.579 5.21899 13.38 5.295 13.135 5.295C12.874 5.295 12.665 5.20999 12.511 5.03999C12.363 4.878 12.29 4.66799 12.29 4.40899C12.29 4.15499 12.362 3.948 12.505 3.789C12.664 3.612 12.879 3.52299 13.15 3.52299ZM13.127 3.871C13.009 3.871 12.915 3.91899 12.846 4.01399C12.775 4.10999 12.74 4.24199 12.74 4.40899C12.74 4.58199 12.775 4.715 12.845 4.807C12.917 4.9 13.015 4.947 13.139 4.947C13.255 4.947 13.347 4.90399 13.414 4.81899C13.491 4.72499 13.529 4.588 13.529 4.40799C13.529 4.24 13.495 4.10899 13.427 4.01599C13.356 3.91899 13.256 3.871 13.127 3.871Z" fill="white"/><path d="M14.693 3.574V3.809C14.745 3.737 14.794 3.684 14.839 3.651C14.95 3.565 15.083 3.522 15.239 3.522C15.376 3.522 15.493 3.557 15.588 3.627C15.664 3.682 15.717 3.752 15.747 3.837C15.777 3.922 15.792 4.041 15.792 4.195V5.25H15.347V4.287C15.347 4.179 15.338 4.1 15.319 4.05C15.302 4.006 15.272 3.971 15.23 3.945C15.182 3.917 15.127 3.903 15.065 3.903C14.997 3.903 14.936 3.919 14.88 3.952C14.825 3.985 14.784 4.029 14.757 4.086C14.727 4.15 14.712 4.249 14.712 4.383V5.247H14.266V3.574H14.693Z" fill="white"/></svg>

<svg class="color-immutable" width="24" height="24" viewBox="0 0 24 24" fill="none" xmlns="http://www.w3.org/2000/svg"><g clip-path="url(#a)"><path d="M0 22.5v-21C0 .675.675 0 1.5 0h21c.825 0 1.5.675 1.5 1.5v21c0 .825-.675 1.5-1.5 1.5h-21C.675 24 0 23.325 0 22.5Z" fill="#2D327D"/><path d="M3.345 16.714a.375.375 0 0 0-.345.373v2.338c0 .207.168.375.376.375h.412v-.431a2.25 2.25 0 0 1 2.249-2.251 2.251 2.251 0 0 1 2.25 2.251v.431h7.462v-.431a2.252 2.252 0 0 1 2.25-2.251 2.252 2.252 0 0 1 2.25 2.251v.431h.374a.376.376 0 0 0 .376-.375v-2.644c0-.297-.12-.584-.33-.795l-2.251-2.25a1.125 1.125 0 0 0-.795-.33H11.14c-.298 0-.584.119-.795.33L7.731 16.35l-4.386.364Zm11.282-.682v-1.537c0-.207.168-.376.375-.376h2.584a.38.38 0 0 1 .266.11l1.794 1.794a.225.225 0 0 1-.16.384h-4.484a.376.376 0 0 1-.375-.375Zm-5.348.374a.225.225 0 0 1-.16-.384l1.794-1.794a.379.379 0 0 1 .266-.11h2.361c.207 0 .375.169.375.376v.001l-.003 1.537a.373.373 0 0 1-.374.373H9.279v.001Z" fill="#fff"/><path fill-rule="evenodd" clip-rule="evenodd" d="M17.995 20.222a.937.937 0 1 1 0-1.874.937.937 0 0 1 0 1.874Zm0-2.644a1.708 1.708 0 0 0 0 3.413 1.707 1.707 0 0 0 0-3.413ZM6.034 20.222a.937.937 0 1 1 .002-1.878.937.937 0 0 1-.002 1.878Zm.001-2.644a1.707 1.707 0 1 0 0 3.414 1.707 1.707 0 0 0 0-3.414Z" fill="#fff"/><path d="M4.59 4.833v.415H3V3h.491v1.833H4.59ZM5.622 3.523a.79.79 0 0 1 .598.243c.153.16.229.373.229.64 0 .276-.082.496-.245.66a.803.803 0 0 1-.595.229c-.261 0-.47-.085-.624-.255-.149-.163-.222-.373-.222-.631 0-.254.072-.461.215-.62.159-.177.374-.266.644-.266Zm-.023.348a.33.33 0 0 0-.281.143.652.652 0 0 0-.106.395c0 .173.035.306.105.398.072.093.17.14.294.14a.332.332 0 0 0 .275-.128c.077-.094.115-.231.115-.411 0-.168-.034-.299-.102-.392a.347.347 0 0 0-.3-.145ZM8.299 4.604a.827.827 0 0 1-.168.419c-.146.181-.351.272-.617.272-.273 0-.485-.093-.637-.28a.909.909 0 0 1-.192-.589c0-.289.086-.517.257-.684a.795.795 0 0 1 .58-.218c.218 0 .396.057.532.17a.665.665 0 0 1 .234.465H7.85a.348.348 0 0 0-.11-.208.307.307 0 0 0-.213-.074.335.335 0 0 0-.288.141c-.069.093-.103.225-.103.394 0 .15.027.27.082.361a.328.328 0 0 0 .3.168c.197 0 .312-.112.346-.337h.435ZM10.087 5.249h-.455a.629.629 0 0 1-.029-.168.72.72 0 0 1-.54.214c-.172 0-.307-.04-.403-.12a.474.474 0 0 1-.166-.386c0-.21.095-.356.285-.437.077-.033.218-.063.425-.091a1.37 1.37 0 0 0 .331-.068c.043-.022.065-.067.065-.133 0-.147-.097-.22-.292-.22-.104 0-.179.018-.227.055-.048.037-.079.101-.095.192h-.421a.543.543 0 0 1 .211-.422c.127-.095.308-.142.542-.142.259 0 .451.053.575.158a.37.37 0 0 1 .115.158.915.915 0 0 1 .028.268l-.005.338-.003.348c0 .122.004.211.011.268.007.057.024.12.048.188Zm-.49-.811a.875.875 0 0 1-.314.085.742.742 0 0 0-.231.063c-.067.036-.1.097-.1.183 0 .07.022.124.066.163a.272.272 0 0 0 .185.058.403.403 0 0 0 .318-.138.274.274 0 0 0 .06-.099.46.46 0 0 0 .016-.136v-.179ZM11.286 3.566v.315h-.334v.789c0 .094.009.154.026.18.026.037.083.055.172.055.035 0 .08-.003.135-.008v.357c-.1.011-.193.017-.277.017a.762.762 0 0 1-.291-.043.332.332 0 0 1-.194-.252 1.954 1.954 0 0 1-.017-.325v-.77h-.272v-.315h.272v-.394h.445v.394h.335ZM11.989 3v.401h-.446V3h.446Zm0 .572v1.677h-.446V3.572h.446ZM13.15 3.523a.79.79 0 0 1 .598.243c.153.16.229.373.229.64 0 .276-.082.496-.245.66a.807.807 0 0 1-.597.229c-.261 0-.47-.085-.624-.255-.148-.162-.221-.372-.221-.631 0-.254.072-.461.215-.62.159-.177.374-.266.645-.266Zm-.023.348a.33.33 0 0 0-.281.143.652.652 0 0 0-.106.395c0 .173.035.306.105.398.072.093.17.14.294.14a.332.332 0 0 0 .275-.128c.077-.094.115-.231.115-.411 0-.168-.034-.299-.102-.392a.35.35 0 0 0-.3-.145ZM14.693 3.574v.235a.633.633 0 0 1 .546-.287c.137 0 .254.035.349.105a.432.432 0 0 1 .159.21c.03.085.045.204.045.358V5.25h-.445v-.963a.722.722 0 0 0-.028-.237.211.211 0 0 0-.089-.105.321.321 0 0 0-.165-.042.356.356 0 0 0-.185.049.306.306 0 0 0-.123.134.738.738 0 0 0-.045.297v.864h-.446V3.574h.427Z" fill="#fff"/></g><defs><clipPath id="a"><path fill="#fff" d="M0 0h24v24H0z"/></clipPath></defs></svg>
